; generated by PrusaSlicer 2.8.0+MacOS-x64 on 2024-08-20 at 13:37:35 UTC


;
;
; 

; external perimeters extrusion width = 0.45mm
; perimeters extrusion width = 0.45mm
; infill extrusion width = 0.45mm
; solid infill extrusion width = 0.45mm
; top infill extrusion width = 0.40mm
; first layer extrusion width = 0.42mm

M73 P0 R63
M73 Q0 S63
M201 X1000 Y1000 Z200 E5000 ; sets maximum accelerations, mm/sec^2
M203 X200 Y200 Z12 E120 ; sets maximum feedrates, mm / sec
M204 S1250 T1250 ; sets acceleration (S) and retract acceleration (R), mm/sec^2
M205 X8.00 Y8.00 Z0.40 E4.50 ; sets the jerk limits, mm/sec
M205 S0 T0 ; sets the minimum extruding and travel feed rate, mm/sec

; printing object weighted_die_3.stl id:0 copy 0
; stop printing object weighted_die_3.stl id:0 copy 0

;TYPE:Custom
M862.3 P "MK3" ; printer model check
M862.1 P0.4 ; nozzle diameter check
M115 U3.14.0 ; tell printer latest fw version
G90 ; use absolute coordinates
M83 ; extruder relative mode
M104 S215 ; set extruder temp
M140 S60 ; set bed temp
M190 S60 ; wait for bed temp
M109 S215 ; wait for extruder temp
G28 W ; home all without mesh bed level
G80 X114.246 Y94.2458 W21.5083 H21.5083 ; mesh bed levelling

G1 Z0.2 F720
G1 Y-3 F1000 ; go outside print area
G92 E0
G1 X60 E9 F1000 ; intro line
G1 X100 E12.5 F1000 ; intro line

G92 E0
M221 S95

; Don't change E values below. Excessive value can damage the printer.
M907 E430 ; set extruder motor current
G21 ; set units to millimeters
G90 ; use absolute coordinates
M83 ; use relative distances for extrusion

M900 K0.05 ; Filament gcode LA 1.5
M900 K30 ; Filament gcode LA 1.0




M107
;LAYER_CHANGE
;Z:0.2
;HEIGHT:0.2
G1 E-.8 F2100
G1 Z.6 F720
G1 X114.827 Y95.637 F10800
G1 Z.2 F720
G1 E.8 F2100
M204 S800
;TYPE:Skirt/Brim
;WIDTH:0.42
G1 F1200
G1 X115.883 Y94.69 E.04447
G1 X117 Y94.434 E.03593
G1 X133 Y94.434 E.50167
G1 X134.363 Y94.827 E.04448
G1 X135.31 Y95.883 E.04447
G1 X135.566 Y97 E.03593
G1 X135.566 Y113 E.50167
G1 X135.173 Y114.363 E.04448
G1 X134.117 Y115.31 E.04447
G1 X133 Y115.566 E.03593
G1 X117 Y115.566 E.50167
G1 X115.637 Y115.173 E.04448
G1 X114.69 Y114.117 E.04447
G1 X114.434 Y113 E.03593
G1 X114.434 Y97 E.50167
G1 X114.81 Y95.694 E.04261
M204 S1000
G1 X114.81 Y95.694 F10800
G1 X115.184 Y95.811
M204 S800
G1 F1200
G1 X115.202 Y95.752 E.00193
G1 X116.235 Y94.949 E.04102
G1 X117 Y94.811 E.02437
G1 X133 Y94.811 E.50167
G1 X134.248 Y95.202 E.04101
G1 X135.051 Y96.235 E.04102
G1 X135.189 Y97 E.02437
G1 X135.189 Y113 E.50167
G1 X134.798 Y114.248 E.04101
G1 X133.765 Y115.051 E.04102
G1 X133 Y115.189 E.02437
G1 X117 Y115.189 E.50167
G1 X115.752 Y114.798 E.04101
G1 X114.949 Y113.765 E.04102
G1 X114.811 Y113 E.02437
G1 X114.811 Y97 E.50167
G1 X115.166 Y95.869 E.03717
M204 S1000
;WIPE_START
G1 F8640
G1 X115.184 Y95.811 E-.01402
G1 X115.202 Y95.752 E-.01424
G1 X116.235 Y94.949 E-.30211
G1 X117 Y94.811 E-.17949
G1 X118.257 Y94.811 E-.29014
;WIPE_END
G1 Z.6 F720
; printing object weighted_die_3.stl id:0 copy 0
G1 X125.228 Y110.785 F10800
G1 Z.2 F720
G1 E.8 F2100
M204 S800
;TYPE:Perimeter
;WIDTH:0.419999
G1 F1200
G1 X124.887 Y110.793 E.01069
G1 X124.28 Y110.637 E.01965
G1 X123.887 Y110.414 E.01417
G1 X123.658 Y110.191 E.01002
G1 X123.383 Y109.797 E.01507
;WIDTH:0.453576
G1 X123.208 Y109.261 E.01925
G1 X123.206 Y108.821 E.01502
;WIDTH:0.449147
G1 X123.325 Y108.337 E.01684
;WIDTH:0.419999
G1 X123.453 Y108.092 E.00867
G1 X123.759 Y107.692 E.01579
G1 X124.163 Y107.41 E.01545
G1 X124.749 Y107.221 E.01931
G1 X125.233 Y107.212 E.01518
G1 X125.718 Y107.356 E.01586
G1 X126.044 Y107.538 E.01171
G1 X126.334 Y107.809 E.01244
G1 X126.611 Y108.205 E.01515
;WIDTH:0.424091
G1 X126.748 Y108.553 E.01185
;WIDTH:0.449143
G1 X126.8 Y108.825 E.00935
;WIDTH:0.453577
G1 X126.799 Y109.26 E.01485
G1 X126.611 Y109.795 E.01936
;WIDTH:0.419999
G1 X126.28 Y110.258 E.01785
G1 X126.001 Y110.495 E.01148
G1 X125.718 Y110.644 E.01003
G1 X125.286 Y110.775 E.01415
M204 S1000
G1 X125.286 Y110.775 F10800
G1 X125.174 Y110.4
M204 S800
G1 F1200
G1 X125.094 Y110.421 E.00259
G1 X124.737 Y110.389 E.01124
G1 X124.251 Y110.206 E.01628
G1 X123.963 Y109.969 E.01169
G1 X123.681 Y109.539 E.01612
G1 X123.6 Y109.228 E.01008
G1 X123.621 Y108.66 E.01782
G1 X123.758 Y108.314 E.01167
G1 X124.077 Y107.914 E.01604
G1 X124.396 Y107.722 E.01167
G1 X124.897 Y107.584 E.01629
G1 X125.269 Y107.606 E.01168
G1 X125.749 Y107.788 E.0161
G1 X126.029 Y108.031 E.01162
G1 X126.315 Y108.465 E.0163
G1 X126.408 Y108.825 E.01166
G1 X126.385 Y109.338 E.0161
G1 X126.234 Y109.686 E.01189
G1 X125.916 Y110.085 E.016
G1 X125.602 Y110.285 E.01167
G1 X125.232 Y110.384 E.01201
M204 S1000
G1 X125.232 Y110.384 F10800
G1 X125.121 Y110.035
M204 S800
;TYPE:External perimeter
G1 F1200
G1 X125.089 Y110.044 E.00104
G1 X124.854 Y110.03 E.00738
G1 X124.464 Y109.895 E.01294
G1 X124.268 Y109.748 E.00768
G1 X124.035 Y109.407 E.01295
G1 X123.976 Y109.195 E.0069
G1 X124 Y108.71 E.01523
G1 X124.063 Y108.535 E.00583
G1 X124.359 Y108.177 E.01456
G1 X124.513 Y108.081 E.00569
G1 X124.907 Y107.961 E.01291
G1 X125.152 Y107.965 E.00768
G1 X125.585 Y108.136 E.0146
G1 X125.724 Y108.252 E.00568
G1 X125.98 Y108.647 E.01476
G1 X126.031 Y108.825 E.00581
G1 X126.021 Y109.238 E.01295
G1 X125.929 Y109.465 E.00768
G1 X125.686 Y109.786 E.01262
G1 X125.485 Y109.927 E.0077
G1 X125.178 Y110.018 E.01004
M204 S1000
;WIPE_START
G1 F8640
G1 X125.121 Y110.035 E-.01373
G1 X125.089 Y110.044 E-.00768
G1 X124.854 Y110.03 E-.05436
G1 X124.464 Y109.895 E-.09529
G1 X124.268 Y109.748 E-.05657
G1 X124.035 Y109.407 E-.09536
G1 X123.976 Y109.195 E-.05081
G1 X124 Y108.71 E-.11212
G1 X124.063 Y108.535 E-.04295
G1 X124.359 Y108.177 E-.10726
G1 X124.513 Y108.081 E-.0419
G1 X124.907 Y107.961 E-.0951
G1 X125.023 Y107.963 E-.02687
;WIPE_END
G1 Z.6 F720
G1 X119.391 Y108.24 F10800
G1 Z.2 F720
G1 E.8 F2100
M204 S800
;TYPE:Perimeter
G1 F1200
G1 X119.453 Y108.092 E.00503
G1 X119.658 Y107.809 E.01096
G1 X120.037 Y107.483 E.01567
G1 X120.28 Y107.363 E.0085
G1 X120.764 Y107.218 E.01584
G1 X121.233 Y107.212 E.01471
G1 X121.718 Y107.356 E.01586
G1 X122.044 Y107.538 E.01171
G1 X122.334 Y107.809 E.01244
G1 X122.611 Y108.205 E.01515
;WIDTH:0.424089
G1 X122.748 Y108.553 E.01185
;WIDTH:0.449143
G1 X122.8 Y108.825 E.00935
;WIDTH:0.453576
G1 X122.799 Y109.26 E.01485
G1 X122.611 Y109.795 E.01936
;WIDTH:0.419999
G1 X122.28 Y110.258 E.01785
G1 X122.001 Y110.495 E.01148
G1 X121.718 Y110.644 E.01003
G1 X121.257 Y110.784 E.01511
G1 X120.887 Y110.793 E.0116
G1 X120.28 Y110.637 E.01965
G1 X119.887 Y110.414 E.01417
G1 X119.658 Y110.191 E.01002
G1 X119.453 Y109.908 E.01096
G1 X119.26 Y109.447 E.01567
G1 X119.221 Y109.179 E.00849
G1 X119.26 Y108.553 E.01967
G1 X119.368 Y108.295 E.00877
M204 S1000
G1 X119.368 Y108.295 F10800
G1 X119.722 Y108.403
M204 S800
G1 F1200
G1 X119.758 Y108.314 E.00301
G1 X120.101 Y107.897 E.01693
G1 X120.396 Y107.722 E.01075
G1 X120.897 Y107.584 E.01629
G1 X121.269 Y107.606 E.01168
G1 X121.749 Y107.788 E.0161
G1 X122.029 Y108.031 E.01162
G1 X122.315 Y108.465 E.0163
G1 X122.408 Y108.825 E.01166
G1 X122.385 Y109.338 E.0161
G1 X122.234 Y109.686 E.01189
G1 X121.916 Y110.085 E.016
G1 X121.602 Y110.285 E.01167
G1 X121.094 Y110.421 E.01649
G1 X120.737 Y110.389 E.01124
G1 X120.251 Y110.206 E.01628
G1 X119.963 Y109.969 E.01169
G1 X119.673 Y109.514 E.01692
G1 X119.598 Y109.179 E.01076
G1 X119.621 Y108.66 E.01629
G1 X119.7 Y108.459 E.00677
M204 S1000
G1 X119.7 Y108.459 F10800
G1 X120.052 Y108.566
M204 S800
;TYPE:External perimeter
G1 F1200
G1 X120.063 Y108.535 E.00103
G1 X120.314 Y108.208 E.01293
G1 X120.513 Y108.081 E.0074
G1 X120.907 Y107.961 E.01291
G1 X121.152 Y107.965 E.00768
G1 X121.585 Y108.136 E.0146
G1 X121.724 Y108.252 E.00568
G1 X121.98 Y108.646 E.01473
G1 X122.031 Y108.825 E.00584
G1 X122.021 Y109.238 E.01295
G1 X121.929 Y109.465 E.00768
G1 X121.686 Y109.786 E.01262
G1 X121.485 Y109.927 E.0077
G1 X121.089 Y110.044 E.01295
G1 X120.854 Y110.03 E.00738
G1 X120.464 Y109.895 E.01294
G1 X120.268 Y109.748 E.00768
G1 X120.035 Y109.407 E.01295
G1 X119.975 Y109.179 E.00739
G1 X119.983 Y108.767 E.01292
G1 X120.033 Y108.623 E.00478
M204 S1000
;WIPE_START
G1 F8640
G1 X120.052 Y108.566 E-.01387
G1 X120.063 Y108.535 E-.0076
G1 X120.314 Y108.208 E-.09518
G1 X120.513 Y108.081 E-.05451
G1 X120.907 Y107.961 E-.0951
G1 X121.152 Y107.965 E-.05658
G1 X121.585 Y108.136 E-.1075
G1 X121.724 Y108.252 E-.0418
G1 X121.98 Y108.646 E-.10849
G1 X122.031 Y108.825 E-.04298
G1 X122.021 Y109.238 E-.09539
G1 X121.929 Y109.465 E-.05656
G1 X121.865 Y109.549 E-.02444
;WIPE_END
G1 Z.6 F720
G1 X122.772 Y101.337 F10800
G1 Z.2 F720
G1 E.8 F2100
M204 S800
;TYPE:Perimeter
;WIDTH:0.453576
G1 F1200
G1 X122.611 Y101.795 E.01658
;WIDTH:0.419999
G1 X122.233 Y102.308 E.01998
G1 X121.839 Y102.595 E.01528
G1 X121.233 Y102.788 E.01994
G1 X120.764 Y102.782 E.01471
G1 X120.28 Y102.637 E.01584
G1 X119.887 Y102.414 E.01417
G1 X119.658 Y102.191 E.01002
G1 X119.453 Y101.908 E.01096
G1 X119.26 Y101.447 E.01567
G1 X119.221 Y101.179 E.00849
G1 X119.221 Y100.821 E.01122
G1 X119.311 Y100.378 E.01417
G1 X119.453 Y100.092 E.01001
G1 X119.74 Y99.711 E.01496
G1 X120.037 Y99.483 E.01174
G1 X120.621 Y99.253 E.01968
G1 X121.094 Y99.202 E.01492
G1 X121.385 Y99.248 E.00924
G1 X121.718 Y99.356 E.01098
G1 X122.145 Y99.615 E.01566
G1 X122.334 Y99.809 E.00849
G1 X122.611 Y100.205 E.01515
;WIDTH:0.424089
G1 X122.748 Y100.553 E.01185
;WIDTH:0.449144
G1 X122.8 Y100.825 E.00935
;WIDTH:0.453576
G1 X122.799 Y101.26 E.01485
G1 X122.791 Y101.281 E.00077
M204 S1000
G1 X122.791 Y101.281 F10800
G1 X122.384 Y101.268
M204 S800
;WIDTH:0.419999
G1 F1200
G1 X122.315 Y101.535 E.00865
G1 X122.029 Y101.969 E.0163
G1 X121.708 Y102.239 E.01315
G1 X121.178 Y102.415 E.01751
G1 X120.737 Y102.389 E.01385
G1 X120.251 Y102.206 E.01628
G1 X119.963 Y101.969 E.01169
G1 X119.673 Y101.514 E.01692
G1 X119.598 Y101.179 E.01076
G1 X119.598 Y100.821 E.01122
G1 X119.673 Y100.486 E.01076
G1 X119.963 Y100.031 E.01692
G1 X120.251 Y99.794 E.01169
G1 X120.737 Y99.611 E.01628
G1 X121.094 Y99.579 E.01124
G1 X121.602 Y99.715 E.01649
G1 X121.916 Y99.915 E.01167
G1 X122.234 Y100.314 E.016
G1 X122.385 Y100.662 E.01189
G1 X122.408 Y101.175 E.0161
G1 X122.399 Y101.21 E.00113
M204 S1000
G1 X122.399 Y101.21 F10800
G1 X122.021 Y101.205
M204 S800
;TYPE:External perimeter
G1 F1200
G1 X122.021 Y101.238 E.00103
G1 X121.929 Y101.465 E.00768
G1 X121.686 Y101.786 E.01262
G1 X121.485 Y101.927 E.0077
G1 X121.089 Y102.044 E.01295
G1 X120.854 Y102.03 E.00738
G1 X120.464 Y101.895 E.01294
G1 X120.268 Y101.748 E.00768
G1 X120.035 Y101.407 E.01295
G1 X119.975 Y101.179 E.00739
G1 X119.975 Y100.821 E.01122
G1 X120.063 Y100.535 E.00938
G1 X120.314 Y100.208 E.01293
G1 X120.513 Y100.081 E.0074
G1 X120.907 Y99.961 E.01291
G1 X121.152 Y99.965 E.00768
G1 X121.542 Y100.103 E.01297
G1 X121.724 Y100.252 E.00737
G1 X121.98 Y100.647 E.01476
G1 X122.031 Y100.825 E.00581
G1 X122.023 Y101.145 E.01004
M204 S1000
;WIPE_START
G1 F8640
G1 X122.021 Y101.205 E-.01386
G1 X122.021 Y101.238 E-.00762
G1 X121.929 Y101.465 E-.05656
G1 X121.686 Y101.786 E-.09296
G1 X121.485 Y101.927 E-.05669
G1 X121.089 Y102.044 E-.09534
G1 X120.854 Y102.03 E-.05436
G1 X120.464 Y101.895 E-.09529
G1 X120.268 Y101.748 E-.05657
G1 X120.035 Y101.407 E-.09536
G1 X119.975 Y101.179 E-.05444
G1 X119.975 Y100.821 E-.08266
G1 X120.024 Y100.663 E-.03829
;WIPE_END
G1 Z.6 F720
G1 X123.371 Y100.23 F10800
G1 Z.2 F720
G1 E.8 F2100
M204 S800
;TYPE:Perimeter
G1 F1200
G1 X123.383 Y100.203 E.00093
G1 X123.712 Y99.742 E.01776
G1 X124.037 Y99.483 E.01303
G1 X124.621 Y99.253 E.01968
G1 X125.094 Y99.202 E.01492
G1 X125.385 Y99.248 E.00924
G1 X125.718 Y99.356 E.01098
G1 X126.145 Y99.615 E.01566
G1 X126.334 Y99.809 E.00849
G1 X126.611 Y100.205 E.01515
;WIDTH:0.42409
G1 X126.748 Y100.553 E.01185
;WIDTH:0.449144
G1 X126.8 Y100.825 E.00935
;WIDTH:0.453577
G1 X126.799 Y101.26 E.01485
G1 X126.611 Y101.795 E.01936
;WIDTH:0.419999
G1 X126.233 Y102.308 E.01998
G1 X125.839 Y102.595 E.01528
G1 X125.233 Y102.788 E.01994
G1 X124.749 Y102.779 E.01518
G1 X124.219 Y102.615 E.0174
G1 X123.847 Y102.385 E.01371
G1 X123.658 Y102.191 E.00849
G1 X123.383 Y101.797 E.01507
;WIDTH:0.453576
G1 X123.208 Y101.261 E.01925
G1 X123.206 Y100.821 E.01502
;WIDTH:0.449148
G1 X123.325 Y100.337 E.01684
;WIDTH:0.419999
G1 X123.347 Y100.285 E.00177
M204 S1000
G1 X123.347 Y100.285 F10800
G1 X123.71 Y100.398
M204 S800
G1 F1200
G1 X123.716 Y100.38 E.00059
G1 X123.995 Y99.99 E.01504
G1 X124.251 Y99.794 E.01011
G1 X124.737 Y99.611 E.01628
G1 X125.094 Y99.579 E.01124
G1 X125.602 Y99.715 E.01649
G1 X125.916 Y99.915 E.01167
G1 X126.234 Y100.314 E.016
G1 X126.385 Y100.662 E.01189
G1 X126.408 Y101.175 E.0161
G1 X126.315 Y101.535 E.01166
G1 X126.029 Y101.969 E.0163
G1 X125.708 Y102.239 E.01315
G1 X125.178 Y102.415 E.01751
G1 X124.737 Y102.389 E.01385
G1 X124.251 Y102.206 E.01628
G1 X123.963 Y101.969 E.01169
G1 X123.681 Y101.539 E.01612
G1 X123.598 Y101.175 E.01171
G1 X123.621 Y100.66 E.01616
G1 X123.691 Y100.455 E.00679
M204 S1000
G1 X123.691 Y100.455 F10800
G1 X124.047 Y100.564
M204 S800
;TYPE:External perimeter
G1 F1200
G1 X124.049 Y100.558 E.0002
G1 X124.314 Y100.208 E.01376
G1 X124.513 Y100.081 E.0074
G1 X124.907 Y99.961 E.01291
G1 X125.152 Y99.965 E.00768
G1 X125.542 Y100.103 E.01297
G1 X125.724 Y100.252 E.00737
G1 X125.98 Y100.647 E.01476
G1 X126.031 Y100.825 E.00581
G1 X126.021 Y101.238 E.01295
G1 X125.929 Y101.465 E.00768
G1 X125.686 Y101.786 E.01262
G1 X125.485 Y101.927 E.0077
G1 X125.089 Y102.044 E.01295
G1 X124.854 Y102.03 E.00738
G1 X124.464 Y101.895 E.01294
G1 X124.268 Y101.748 E.00768
G1 X124.035 Y101.407 E.01295
G1 X123.975 Y101.175 E.00751
G1 X124 Y100.71 E.0146
G1 X124.028 Y100.621 E.00293
M204 S1000
;WIPE_START
G1 F8640
G1 X124.047 Y100.564 E-.01387
G1 X124.049 Y100.558 E-.00146
G1 X124.314 Y100.208 E-.10137
G1 X124.513 Y100.081 E-.05451
G1 X124.907 Y99.961 E-.0951
G1 X125.152 Y99.965 E-.05658
G1 X125.542 Y100.103 E-.09552
G1 X125.724 Y100.252 E-.05431
G1 X125.98 Y100.647 E-.10869
G1 X126.031 Y100.825 E-.04275
G1 X126.021 Y101.238 E-.09539
G1 X125.929 Y101.465 E-.05656
G1 X125.867 Y101.548 E-.02389
;WIPE_END
G1 Z.6 F720
G1 X127.371 Y100.23 F10800
G1 Z.2 F720
G1 E.8 F2100
M204 S800
;TYPE:Perimeter
G1 F1200
G1 X127.383 Y100.203 E.00093
G1 X127.712 Y99.742 E.01776
G1 X128.037 Y99.483 E.01303
G1 X128.621 Y99.253 E.01968
G1 X129.094 Y99.202 E.01492
G1 X129.385 Y99.248 E.00924
G1 X129.718 Y99.356 E.01098
G1 X130.145 Y99.615 E.01566
G1 X130.334 Y99.809 E.00849
G1 X130.671 Y100.339 E.01969
G1 X130.786 Y100.825 E.01566
G1 X130.771 Y101.338 E.01609
G1 X130.671 Y101.661 E.0106
G1 X130.334 Y102.191 E.01969
G1 X130.001 Y102.495 E.01414
G1 X129.718 Y102.644 E.01003
G1 X129.176 Y102.795 E.01764
G1 X128.749 Y102.779 E.0134
G1 X128.219 Y102.615 E.0174
G1 X127.847 Y102.385 E.01371
G1 X127.658 Y102.191 E.00849
G1 X127.383 Y101.797 E.01507
;WIDTH:0.453577
G1 X127.208 Y101.261 E.01925
G1 X127.206 Y100.821 E.01502
;WIDTH:0.449148
G1 X127.325 Y100.337 E.01684
;WIDTH:0.419999
G1 X127.347 Y100.285 E.00177
M204 S1000
G1 X127.347 Y100.285 F10800
G1 X127.71 Y100.398
M204 S800
G1 F1200
G1 X127.716 Y100.38 E.00059
G1 X127.995 Y99.99 E.01504
G1 X128.251 Y99.794 E.01011
G1 X128.737 Y99.611 E.01628
G1 X129.094 Y99.579 E.01124
G1 X129.602 Y99.715 E.01649
G1 X129.981 Y99.973 E.01438
G1 X130.315 Y100.465 E.01865
G1 X130.408 Y100.825 E.01166
G1 X130.376 Y101.364 E.01693
G1 X130.24 Y101.679 E.01076
G1 X129.916 Y102.085 E.01629
G1 X129.602 Y102.285 E.01167
G1 X129.079 Y102.421 E.01694
G1 X128.737 Y102.389 E.01077
G1 X128.251 Y102.206 E.01628
G1 X127.963 Y101.969 E.01169
G1 X127.681 Y101.539 E.01612
G1 X127.598 Y101.175 E.01171
G1 X127.621 Y100.66 E.01616
G1 X127.691 Y100.455 E.00679
M204 S1000
G1 X127.691 Y100.455 F10800
G1 X128.047 Y100.564
M204 S800
;TYPE:External perimeter
G1 F1200
G1 X128.049 Y100.558 E.0002
G1 X128.314 Y100.208 E.01376
G1 X128.513 Y100.081 E.0074
G1 X128.907 Y99.961 E.01291
G1 X129.152 Y99.965 E.00768
G1 X129.542 Y100.103 E.01297
G1 X129.724 Y100.252 E.00737
G1 X129.96 Y100.591 E.01295
G1 X130.031 Y100.825 E.00767
G1 X130.021 Y101.238 E.01295
G1 X129.935 Y101.457 E.00738
