; generated by PrusaSlicer 2.8.0+MacOS-x64 on 2024-08-20 at 12:48:49 UTC


;
;
; 

; external perimeters extrusion width = 0.45mm
; perimeters extrusion width = 0.45mm
; infill extrusion width = 0.45mm
; solid infill extrusion width = 0.45mm
; top infill extrusion width = 0.40mm
; first layer extrusion width = 0.42mm

M73 P0 R47
M73 Q0 S48
M201 X1000 Y1000 Z200 E5000 ; sets maximum accelerations, mm/sec^2
M203 X200 Y200 Z12 E120 ; sets maximum feedrates, mm / sec
M204 S1250 T1250 ; sets acceleration (S) and retract acceleration (R), mm/sec^2
M205 X8.00 Y8.00 Z0.40 E4.50 ; sets the jerk limits, mm/sec
M205 S0 T0 ; sets the minimum extruding and travel feed rate, mm/sec

; printing object weighted_die.stl id:0 copy 0
; stop printing object weighted_die.stl id:0 copy 0

;TYPE:Custom
M862.3 P "MK3" ; printer model check
M862.1 P0.4 ; nozzle diameter check
M115 U3.14.0 ; tell printer latest fw version
G90 ; use absolute coordinates
M83 ; extruder relative mode
M104 S215 ; set extruder temp
M140 S60 ; set bed temp
M190 S60 ; wait for bed temp
M109 S215 ; wait for extruder temp
G28 W ; home all without mesh bed level
G80 X114.246 Y94.2458 W21.5083 H21.5083 ; mesh bed levelling

G1 Z0.2 F720
G1 Y-3 F1000 ; go outside print area
G92 E0
G1 X60 E9 F1000 ; intro line
G1 X100 E12.5 F1000 ; intro line
M73 Q0 S47

G92 E0
M221 S95

; Don't change E values below. Excessive value can damage the printer.
M907 E430 ; set extruder motor current
G21 ; set units to millimeters
G90 ; use absolute coordinates
M83 ; use relative distances for extrusion

M900 K0.05 ; Filament gcode LA 1.5
M900 K30 ; Filament gcode LA 1.0




M107
;LAYER_CHANGE
;Z:0.2
;HEIGHT:0.2
G1 E-.8 F2100
G1 Z.6 F720
G1 X114.827 Y95.637 F10800
G1 Z.2 F720
G1 E.8 F2100
M204 S800
;TYPE:Skirt/Brim
;WIDTH:0.42
G1 F1200
G1 X115.883 Y94.69 E.04447
G1 X117 Y94.434 E.03593
G1 X133 Y94.434 E.50167
G1 X134.363 Y94.827 E.04448
G1 X135.31 Y95.883 E.04447
G1 X135.566 Y97 E.03593
G1 X135.566 Y113 E.50167
G1 X135.173 Y114.363 E.04448
G1 X134.117 Y115.31 E.04447
G1 X133 Y115.566 E.03593
G1 X117 Y115.566 E.50167
G1 X115.637 Y115.173 E.04448
G1 X114.69 Y114.117 E.04447
G1 X114.434 Y113 E.03593
G1 X114.434 Y97 E.50167
G1 X114.81 Y95.694 E.04261
M204 S1000
G1 X114.81 Y95.694 F10800
G1 X115.184 Y95.811
M204 S800
G1 F1200
G1 X115.202 Y95.752 E.00193
G1 X116.235 Y94.949 E.04102
G1 X117 Y94.811 E.02437
G1 X133 Y94.811 E.50167
G1 X134.248 Y95.202 E.04101
G1 X135.051 Y96.235 E.04102
G1 X135.189 Y97 E.02437
G1 X135.189 Y113 E.50167
G1 X134.798 Y114.248 E.04101
G1 X133.765 Y115.051 E.04102
G1 X133 Y115.189 E.02437
G1 X117 Y115.189 E.50167
G1 X115.752 Y114.798 E.04101
G1 X114.949 Y113.765 E.04102
G1 X114.811 Y113 E.02437
G1 X114.811 Y97 E.50167
G1 X115.166 Y95.869 E.03717
M204 S1000
;WIPE_START
G1 F8640
G1 X115.184 Y95.811 E-.01402
G1 X115.202 Y95.752 E-.01424
G1 X116.235 Y94.949 E-.30211
G1 X117 Y94.811 E-.17949
G1 X118.257 Y94.811 E-.29014
;WIPE_END
G1 Z.6 F720
; printing object weighted_die.stl id:0 copy 0
G1 X125.228 Y106.785 F10800
G1 Z.2 F720
G1 E.8 F2100
M204 S800
;TYPE:Perimeter
;WIDTH:0.419999
G1 F1200
G1 X124.887 Y106.793 E.01069
G1 X124.28 Y106.637 E.01965
G1 X123.887 Y106.414 E.01417
G1 X123.658 Y106.191 E.01002
G1 X123.371 Y105.774 E.01587
G1 X123.235 Y105.342 E.0142
G1 X123.221 Y104.821 E.01634
G1 X123.311 Y104.378 E.01417
G1 X123.453 Y104.092 E.01001
G1 X123.748 Y103.703 E.01531
G1 X124.037 Y103.483 E.01139
G1 X124.621 Y103.253 E.01968
G1 X125.094 Y103.202 E.01492
G1 X125.385 Y103.248 E.00924
G1 X125.869 Y103.42 E.01611
G1 X126.245 Y103.704 E.01477
G1 X126.545 Y104.099 E.01555
G1 X126.731 Y104.51 E.01414
G1 X126.786 Y104.825 E.01003
G1 X126.771 Y105.338 E.01609
G1 X126.671 Y105.661 E.0106
G1 X126.334 Y106.191 E.01969
G1 X126.001 Y106.495 E.01414
G1 X125.718 Y106.644 E.01003
G1 X125.286 Y106.775 E.01415
M204 S1000
G1 X125.286 Y106.775 F10800
G1 X125.174 Y106.4
M204 S800
G1 F1200
G1 X125.094 Y106.421 E.00259
G1 X124.737 Y106.389 E.01124
G1 X124.251 Y106.206 E.01628
G1 X123.963 Y105.969 E.01169
G1 X123.673 Y105.514 E.01692
G1 X123.598 Y105.179 E.01076
G1 X123.598 Y104.821 E.01122
G1 X123.709 Y104.394 E.01383
G1 X124.017 Y103.967 E.01651
G1 X124.396 Y103.722 E.01415
G1 X124.897 Y103.584 E.01629
G1 X125.269 Y103.606 E.01168
G1 X125.771 Y103.804 E.01692
G1 X126.029 Y104.031 E.01077
G1 X126.315 Y104.465 E.0163
G1 X126.408 Y104.825 E.01166
G1 X126.376 Y105.364 E.01693
G1 X126.24 Y105.679 E.01076
G1 X125.916 Y106.085 E.01629
G1 X125.602 Y106.285 E.01167
G1 X125.232 Y106.384 E.01201
M204 S1000
G1 X125.232 Y106.384 F10800
G1 X125.121 Y106.035
M204 S800
;TYPE:External perimeter
G1 F1200
G1 X125.089 Y106.044 E.00104
G1 X124.854 Y106.03 E.00738
G1 X124.464 Y105.895 E.01294
G1 X124.268 Y105.748 E.00768
G1 X124.035 Y105.407 E.01295
G1 X123.975 Y105.179 E.00739
G1 X123.975 Y104.821 E.01122
G1 X124.063 Y104.535 E.00938
G1 X124.314 Y104.208 E.01293
G1 X124.513 Y104.081 E.0074
G1 X124.907 Y103.961 E.01291
G1 X125.152 Y103.965 E.00768
G1 X125.542 Y104.103 E.01297
G1 X125.724 Y104.252 E.00737
G1 X125.96 Y104.591 E.01295
G1 X126.031 Y104.825 E.00767
G1 X126.021 Y105.238 E.01295
G1 X125.935 Y105.457 E.00738
G1 X125.686 Y105.786 E.01294
G1 X125.485 Y105.927 E.0077
G1 X125.178 Y106.018 E.01004
M204 S1000
;WIPE_START
G1 F8640
G1 X125.121 Y106.035 E-.01373
G1 X125.089 Y106.044 E-.00768
G1 X124.854 Y106.03 E-.05436
G1 X124.464 Y105.895 E-.09529
G1 X124.268 Y105.748 E-.05657
G1 X124.035 Y105.407 E-.09536
G1 X123.975 Y105.179 E-.05444
G1 X123.975 Y104.821 E-.08266
G1 X124.063 Y104.535 E-.06909
G1 X124.314 Y104.208 E-.09518
G1 X124.513 Y104.081 E-.05451
G1 X124.907 Y103.961 E-.0951
G1 X125.02 Y103.963 E-.02603
;WIPE_END
G1 Z.6 F720
G1 X131.836 Y111.836 F10800
G1 Z.2 F720
G1 E.8 F2100
M204 S800
;TYPE:Perimeter
G1 F1200
G1 X118.164 Y111.836 E.42868
G1 X118.164 Y98.164 E.42868
G1 X131.836 Y98.164 E.42868
G1 X131.836 Y101.424 E.10221
G1 X131.836 Y111.776 E.32458
M204 S1000
G1 X131.836 Y111.776 F10800
G1 X132.213 Y112.213
M204 S800
G1 F1200
G1 X117.787 Y112.213 E.45232
G1 X117.787 Y97.787 E.45232
G1 X132.213 Y97.787 E.45232
G1 X132.213 Y101.424 E.11404
G1 X132.213 Y112.153 E.3364
M204 S1000
G1 X132.59 Y112.59 F10800
M204 S800
;TYPE:External perimeter
G1 F1200
G1 X117.41 Y112.59 E.47596
G1 X117.41 Y97.41 E.47596
G1 X132.59 Y97.41 E.47596
G1 X132.59 Y101.424 E.12586
G1 X132.59 Y112.53 E.34822
M204 S1000
;WIPE_START
G1 F8640
G1 X132.59 Y112.59 E-.01385
G1 X129.185 Y112.59 E-.78615
;WIPE_END
G1 Z.6 F720
G1 X131.666 Y99.098 F10800
G1 Z.2 F720
G1 E.8 F2100
M204 S800
;TYPE:Solid infill
;WIDTH:0.421081
G1 F1200
G1 X131.071 Y98.504 E.02644
G1 X130.536 Y98.504 E.01682
G1 X131.496 Y99.464 E.04269
G1 X131.496 Y99.998 E.01679
G1 X130.002 Y98.504 E.06644
G1 X129.467 Y98.504 E.01682
G1 X131.496 Y100.533 E.09023
G1 X131.496 Y101.068 E.01682
G1 X128.932 Y98.504 E.11402
G1 X128.397 Y98.504 E.01682
G1 X131.496 Y101.603 E.13781
G1 X131.496 Y102.138 E.01682
G1 X127.862 Y98.504 E.1616
G1 X127.328 Y98.504 E.01679
G1 X131.496 Y102.672 E.18535
G1 X131.496 Y103.207 E.01682
M73 Q1 S47
G1 X126.793 Y98.504 E.20914
G1 X126.258 Y98.504 E.01682
M73 P1 R47
G1 X131.496 Y103.742 E.23293
G1 X131.496 Y104.277 E.01682
G1 X125.723 Y98.504 E.25672
G1 X125.188 Y98.504 E.01682
G1 X131.496 Y104.812 E.28051
G1 X131.496 Y105.346 E.01679
G1 X124.654 Y98.504 E.30426
G1 X124.119 Y98.504 E.01682
G1 X131.496 Y105.881 E.32805
G1 X131.496 Y106.416 E.01682
G1 X123.584 Y98.504 E.35184
G1 X123.049 Y98.504 E.01682
G1 X131.496 Y106.951 E.37563
G1 X131.496 Y107.486 E.01682
G1 X122.514 Y98.504 E.39942
G1 X121.98 Y98.504 E.01679
G1 X131.496 Y108.02 E.42317
G1 X131.496 Y108.555 E.01682
G1 X121.445 Y98.504 E.44696
G1 X120.91 Y98.504 E.01682
G1 X125.302 Y102.896 E.19531
G1 X125.071 Y102.862 E.00734
G1 X124.753 Y102.882 E.01002
G1 X120.375 Y98.504 E.19468
G1 X119.84 Y98.504 E.01682
G1 X124.331 Y102.994 E.19969
G1 X124.166 Y103.043 E.00541
G1 X123.951 Y103.149 E.00754
G1 X119.306 Y98.504 E.20656
G1 X118.771 Y98.504 E.01682
G1 X123.633 Y103.366 E.21621
G1 X123.506 Y103.464 E.00504
G1 X123.372 Y103.639 E.00693
G1 X118.504 Y98.771 E.21647
G1 X118.504 Y99.306 E.01682
G1 X123.145 Y103.947 E.20638
G1 X123.067 Y104.075 E.00471
G1 X122.977 Y104.314 E.00803
G1 X118.504 Y99.841 E.19891
G1 X118.504 Y100.375 E.01679
G1 X122.889 Y104.761 E.19502
G1 X122.882 Y105.19 E.01349
G1 X122.898 Y105.305 E.00365
G1 X118.334 Y100.741 E.20296
M204 S1000
;WIPE_START
G1 F8640
G1 X120.784 Y103.191 E-.8
;WIPE_END
G1 Z.6 F720
G1 X126.898 Y104.491 F10800
G1 Z.2 F720
G1 E.8 F2100
M204 S800
G1 F1200
G1 X131.496 Y109.09 E.20449
G1 X131.496 Y109.625 E.01682
G1 X127.112 Y105.24 E.19497
G1 X127.107 Y105.395 E.00488
G1 X127.019 Y105.682 E.00944
G1 X131.496 Y110.16 E.19911
G1 X131.496 Y110.694 E.01679
G1 X126.849 Y106.047 E.20665
G1 X126.624 Y106.357 E.01204
G1 X131.496 Y111.229 E.21665
G1 X131.496 Y111.496 E.0084
G1 X131.229 Y111.496 E.0084
G1 X126.367 Y106.634 E.21621
G1 X126.059 Y106.861 E.01203
G1 X130.694 Y111.496 E.20611
G1 X130.159 Y111.496 E.01682
G1 X125.672 Y107.009 E.19953
G1 X125.487 Y107.076 E.00619
G1 X125.253 Y107.124 E.00751
G1 X129.625 Y111.496 E.19442
G1 X129.09 Y111.496 E.01682
G1 X124.47 Y106.877 E.20542
M204 S1000
;WIPE_START
G1 F8640
G1 X126.92 Y109.327 E-.8
;WIPE_END
G1 Z.6 F720
G1 X128.725 Y111.666 F10800
G1 Z.2 F720
G1 E.8 F2100
M204 S800
G1 F1200
G1 X118.504 Y101.445 E.45452
G1 X118.504 Y101.98 E.01682
G1 X128.02 Y111.496 E.42317
G1 X127.485 Y111.496 E.01682
G1 X118.504 Y102.515 E.39937
G1 X118.504 Y103.049 E.01679
G1 X126.951 Y111.496 E.37563
G1 X126.416 Y111.496 E.01682
G1 X118.504 Y103.584 E.35184
G1 X118.504 Y104.119 E.01682
G1 X125.881 Y111.496 E.32805
G1 X125.346 Y111.496 E.01682
G1 X118.504 Y104.654 E.30426
G1 X118.504 Y105.189 E.01682
G1 X124.811 Y111.496 E.28046
G1 X124.277 Y111.496 E.01679
G1 X118.504 Y105.723 E.25672
G1 X118.504 Y106.258 E.01682
G1 X123.742 Y111.496 E.23293
G1 X123.207 Y111.496 E.01682
G1 X118.504 Y106.793 E.20914
G1 X118.504 Y107.328 E.01682
G1 X122.672 Y111.496 E.18535
G1 X122.137 Y111.496 E.01682
G1 X118.504 Y107.863 E.16156
G1 X118.504 Y108.397 E.01679
G1 X121.603 Y111.496 E.13781
G1 X121.068 Y111.496 E.01682
G1 X118.504 Y108.932 E.11402
G1 X118.504 Y109.467 E.01682
M73 P1 R46
G1 X120.533 Y111.496 E.09023
G1 X119.998 Y111.496 E.01682
G1 X118.504 Y110.002 E.06644
G1 X118.504 Y110.537 E.01682
G1 X119.463 Y111.496 E.04265
G1 X118.929 Y111.496 E.01679
G1 X118.334 Y110.902 E.02644
M204 S1000
M106 S84.15
;LAYER_CHANGE
;Z:0.3
;HEIGHT:0.1
;BEFORE_LAYER_CHANGE
G92 E0.0
;0.3


;WIPE_START
G1 F8640
G1 X118.929 Y111.496 E-.19413
G1 X119.463 Y111.496 E-.1233
G1 X118.504 Y110.537 E-.31316
G1 X118.504 Y110.002 E-.12353
G1 X118.645 Y110.143 E-.04588
;WIPE_END
G1 Z.3 F720
;AFTER_LAYER_CHANGE
;0.3
M104 S210 ; set temperature
; stop printing object weighted_die.stl id:0 copy 0
G1 Z.7
G1 X114.434 Y110.143 F10800
G1 Z.3 F720
G1 E.8 F2100
;TYPE:Skirt/Brim
;WIDTH:0.42
G1 F3000
G1 X114.434 Y97 E.21777
G1 X114.827 Y95.637 E.0235
G1 X115.883 Y94.69 E.0235
G1 X117 Y94.434 E.01899
G1 X133 Y94.434 E.26511
G1 X134.363 Y94.827 E.0235
G1 X135.31 Y95.883 E.0235
G1 X135.566 Y97 E.01899
G1 X135.566 Y113 E.26511
G1 X135.173 Y114.363 E.0235
G1 X134.117 Y115.31 E.0235
G1 X133 Y115.566 E.01899
G1 X117 Y115.566 E.26511
G1 X115.637 Y115.173 E.0235
G1 X114.69 Y114.117 E.0235
G1 X114.434 Y113 E.01899
G1 X114.434 Y110.203 E.04634
G1 X114.434 Y110.203 F10800
G1 X114.811 Y110.203
G1 F3000
G1 X114.811 Y97 E.21877
G1 X115.202 Y95.752 E.02167
G1 X116.235 Y94.949 E.02168
G1 X117 Y94.811 E.01288
G1 X133 Y94.811 E.26511
G1 X134.248 Y95.202 E.02167
G1 X135.051 Y96.235 E.02168
G1 X135.189 Y97 E.01288
G1 X135.189 Y113 E.26511
G1 X134.798 Y114.248 E.02167
G1 X133.765 Y115.051 E.02168
G1 X133 Y115.189 E.01288
G1 X117 Y115.189 E.26511
G1 X115.752 Y114.798 E.02167
G1 X114.949 Y113.765 E.02168
G1 X114.811 Y113 E.01288
G1 X114.811 Y110.263 E.04535
;WIPE_START
G1 F8640
G1 X114.811 Y110.203 E-.01385
G1 X114.811 Y106.798 E-.78615
;WIPE_END
G1 Z.7 F720
; printing object weighted_die.stl id:0 copy 0
G1 X125.453 Y106.611 F10800
G1 Z.3 F720
G1 E.8 F2100
M204 S600
;TYPE:Perimeter
;WIDTH:0.449999
G1 F1500
G1 X125.408 Y106.627 E.00085
G1 X124.873 Y106.658 E.00955
G1 X124.521 Y106.598 E.00636
G1 X123.996 Y106.321 E.01058
G1 X123.778 Y106.157 E.00486
G1 X123.631 Y105.98 E.0041
G1 X123.398 Y105.433 E.01059
G1 X123.332 Y105.044 E.00703
G1 X123.434 Y104.453 E.01069
G1 X123.613 Y104.044 E.00795
G1 X123.819 Y103.828 E.00532
G1 X124.253 Y103.506 E.00963
G1 X124.638 Y103.386 E.00718
G1 X125.156 Y103.335 E.00927
G1 X125.535 Y103.404 E.00686
G1 X126.041 Y103.708 E.01052
G1 X126.322 Y103.982 E.00699
G1 X126.589 Y104.522 E.01073
G1 X126.668 Y104.78 E.00481
G1 X126.668 Y105.15 E.00659
G1 X126.476 Y105.782 E.01177
G1 X126.241 Y106.093 E.00694
G1 X125.754 Y106.502 E.01133
G1 X125.509 Y106.591 E.00464
M204 S1000
G1 X125.509 Y106.591 F10800
G1 X125.33 Y106.191
M204 S600
G1 F1500
G1 X125.249 Y106.215 E.00151
G1 X124.762 Y106.22 E.00868
G1 X124.556 Y106.146 E.0039
G1 X124.076 Y105.85 E.01005
G1 X123.922 Y105.612 E.00505
G1 X123.8 Y105.284 E.00623
G1 X123.76 Y105.051 E.00421
G1 X123.854 Y104.539 E.00927
G1 X123.961 Y104.293 E.00478
G1 X124.359 Y103.947 E.0094
G1 X124.647 Y103.818 E.00562
G1 X125.156 Y103.763 E.00912
G1 X125.384 Y103.805 E.00413
G1 X125.898 Y104.142 E.01095
G1 X126.033 Y104.334 E.00418
G1 X126.244 Y104.839 E.00975
G1 X126.232 Y105.138 E.00533
G1 X126.093 Y105.59 E.00843
G1 X125.952 Y105.776 E.00416
G1 X125.542 Y106.13 E.00965
G1 X125.388 Y106.175 E.00286
M204 S1000
G1 X125.388 Y106.175 F10800
G1 X125.207 Y105.768
M204 S600
;TYPE:External perimeter
G1 F1500
G1 X124.841 Y105.798 E.00654
G1 X124.375 Y105.542 E.00947
G1 X124.202 Y105.135 E.00788
G1 X124.193 Y105.018 E.00209
G1 X124.309 Y104.543 E.00871
G1 X124.694 Y104.247 E.00865
G1 X125.193 Y104.195 E.00894
G1 X125.598 Y104.447 E.0085
G1 X125.823 Y104.923 E.00938
G1 X125.71 Y105.398 E.0087
G1 X125.329 Y105.758 E.00934
G1 X125.267 Y105.763 E.00111
M204 S1000
;WIPE_START
G1 F8640
G1 X125.207 Y105.768 E-.0139
G1 X124.841 Y105.798 E-.08479
G1 X124.375 Y105.542 E-.12277
G1 X124.202 Y105.135 E-.10211
G1 X124.193 Y105.018 E-.0271
G1 X124.309 Y104.543 E-.1129
G1 X124.694 Y104.247 E-.11213
G1 X125.193 Y104.195 E-.11584
G1 X125.592 Y104.444 E-.10846
;WIPE_END
G1 Z.7 F720
G1 X131.918 Y111.918 F10800
G1 Z.3 F720
G1 E.8 F2100
M204 S600
;TYPE:Perimeter
G1 F2085.068
G1 X118.082 Y111.918 E.24651
G1 X118.082 Y98.082 E.24651
M73 Q2 S47
G1 X131.918 Y98.082 E.24651
M73 P2 R46
G1 F2118.409
G1 X131.918 Y101.443 E.05988
G1 F2115.649
G1 X131.918 Y111.858 E.18556
M204 S1000
G1 X132.346 Y112.346 F10800
M204 S600
G1 F1931.882
G1 X117.654 Y112.346 E.26176
G1 X117.654 Y97.654 E.26176
G1 X132.346 Y97.654 E.26176
G1 F1973.528
G1 X132.346 Y101.443 E.06751
G1 F1970.08
M73 Q2 S46
G1 X132.346 Y112.286 E.19319
M204 S1000
G1 X132.346 Y112.286 F10800
G1 X132.775 Y112.775
M204 S600
;TYPE:External perimeter
G1 F1500
G1 X117.225 Y112.775 E.27705
G1 X117.225 Y97.225 E.27705
G1 X132.775 Y97.225 E.27705
G1 X132.775 Y101.443 E.07515
G1 X132.775 Y112.715 E.20083
M204 S1000
;WIPE_START
G1 F8640
G1 X132.775 Y112.775 E-.01385
G1 X129.37 Y112.775 E-.78615
;WIPE_END
G1 Z.7 F720
G1 X118.584 Y98.503 F10800
G1 Z.3 F720
G1 E.8 F2100
;TYPE:Solid infill
;WIDTH:0.553972
G1 F4800
G1 X118.537 Y98.455 E.00149
G1 X118.473 Y98.473 E.00147
G1 X118.455 Y98.537 E.00147
G1 X118.503 Y98.584 E.00149
G1 X118.567 Y98.567 E.00147
;WIDTH:0.449999
G1 X118.468 Y99.251 E.01231
G1 X119.251 Y98.468 E.01973
G1 X119.857 Y98.468 E.0108
G1 X118.468 Y99.857 E.035
G1 X118.468 Y100.463 E.0108
G1 X120.463 Y98.468 E.05027
G1 X121.069 Y98.468 E.0108
G1 X118.468 Y101.069 E.06554
G1 X118.468 Y101.676 E.01081
G1 X121.676 Y98.468 E.08083
G1 X122.282 Y98.468 E.0108
G1 X118.468 Y102.282 E.0961
G1 X118.468 Y102.888 E.0108
G1 X122.888 Y98.468 E.11137
G1 X123.494 Y98.468 E.0108
G1 X118.468 Y103.494 E.12664
G1 X118.468 Y104.1 E.0108
G1 X124.1 Y98.468 E.14191
G1 X124.706 Y98.468 E.0108
G1 X118.468 Y104.706 E.15718
G1 X118.468 Y105.312 E.0108
G1 X125.312 Y98.468 E.17244
G1 X125.918 Y98.468 E.0108
G1 X118.468 Y105.918 E.18771
G1 X118.468 Y106.524 E.0108
