; generated by PrusaSlicer 2.8.0+MacOS-x64 on 2024-08-21 at 23:09:11 UTC


;
;
; 

; external perimeters extrusion width = 0.45mm
; perimeters extrusion width = 0.45mm
; infill extrusion width = 0.45mm
; solid infill extrusion width = 0.45mm
; top infill extrusion width = 0.40mm
; first layer extrusion width = 0.42mm

M73 P0 R56
M73 Q0 S56
M201 X1000 Y1000 Z200 E5000 ; sets maximum accelerations, mm/sec^2
M203 X200 Y200 Z12 E120 ; sets maximum feedrates, mm / sec
M204 S1250 T1250 ; sets acceleration (S) and retract acceleration (R), mm/sec^2
M205 X8.00 Y8.00 Z0.40 E4.50 ; sets the jerk limits, mm/sec
M205 S0 T0 ; sets the minimum extruding and travel feed rate, mm/sec

; printing object weighted_die_10.stl id:0 copy 0
; stop printing object weighted_die_10.stl id:0 copy 0

;TYPE:Custom
M862.3 P "MK3" ; printer model check
M862.1 P0.4 ; nozzle diameter check
M115 U3.14.0 ; tell printer latest fw version
G90 ; use absolute coordinates
M83 ; extruder relative mode
M104 S215 ; set extruder temp
M140 S60 ; set bed temp
M190 S60 ; wait for bed temp
M109 S215 ; wait for extruder temp
G28 W ; home all without mesh bed level
G80 X115.127 Y95.1266 W19.7468 H19.7468 ; mesh bed levelling

G1 Z0.2 F720
G1 Y-3 F1000 ; go outside print area
G92 E0
G1 X60 E9 F1000 ; intro line
G1 X100 E12.5 F1000 ; intro line

G92 E0
M221 S95

; Don't change E values below. Excessive value can damage the printer.
M907 E430 ; set extruder motor current
G21 ; set units to millimeters
G90 ; use absolute coordinates
M83 ; use relative distances for extrusion

M900 K0.05 ; Filament gcode LA 1.5
M900 K30 ; Filament gcode LA 1.0




M107
;LAYER_CHANGE
;Z:0.2
;HEIGHT:0.2
G1 E-.8 F2100
G1 Z.6 F720
G1 X116.067 Y96.417 F10800
G1 Z.2 F720
G1 E.8 F2100
M204 S800
;TYPE:Skirt/Brim
;WIDTH:0.42
G1 F1200
G1 X116.417 Y96.067 E.01552
G1 X118.231 Y95.315 E.06157
G1 X131.769 Y95.315 E.42447
G1 X133.583 Y96.067 E.06157
G1 X133.933 Y96.417 E.01552
G1 X134.685 Y98.231 E.06157
G1 X134.685 Y111.769 E.42447
G1 X133.933 Y113.583 E.06157
G1 X133.583 Y113.933 E.01552
G1 X131.769 Y114.685 E.06157
G1 X118.231 Y114.685 E.42447
G1 X116.417 Y113.933 E.06157
G1 X116.067 Y113.583 E.01552
G1 X115.315 Y111.769 E.06157
G1 X115.315 Y98.231 E.42447
G1 X116.044 Y96.472 E.0597
M204 S1000
G1 X116.044 Y96.472 F10800
G1 X116.333 Y96.683
M204 S800
G1 F1200
G1 X116.683 Y96.333 E.01552
G1 X118.231 Y95.692 E.05253
G1 X131.769 Y95.692 E.42447
G1 X133.317 Y96.333 E.05253
G1 X133.667 Y96.683 E.01552
G1 X134.308 Y98.231 E.05253
G1 X134.308 Y111.769 E.42447
G1 X133.667 Y113.317 E.05253
G1 X133.317 Y113.667 E.01552
G1 X131.769 Y114.308 E.05253
G1 X118.231 Y114.308 E.42447
G1 X116.683 Y113.667 E.05253
G1 X116.333 Y113.317 E.01552
G1 X115.692 Y111.769 E.05253
G1 X115.692 Y98.231 E.42447
G1 X116.31 Y96.739 E.05063
M204 S1000
;WIPE_START
G1 F8640
G1 X116.333 Y96.683 E-.01398
G1 X116.683 Y96.333 E-.11429
G1 X118.231 Y95.692 E-.38687
G1 X119.465 Y95.692 E-.28486
;WIPE_END
G1 Z.6 F720
; printing object weighted_die_10.stl id:0 copy 0
G1 X130.29 Y104.682 F10800
G1 Z.2 F720
G1 E.8 F2100
M204 S800
;TYPE:External perimeter
;WIDTH:0.419999
G1 F1200
G1 X130.296 Y104.7 E.00059
G1 X130.323 Y105.018 E.01001
G1 X130.288 Y105.336 E.01003
G1 X130.192 Y105.641 E.01003
G1 X130.038 Y105.922 E.01005
G1 X129.833 Y106.166 E.00999
G1 X129.583 Y106.366 E.01004
G1 X129.299 Y106.514 E.01004
;WIDTH:0.447572
G1 X128.712 Y106.645 E.02024
G1 X128.356 Y106.597 E.01209
;WIDTH:0.421564
G1 X128.051 Y106.5 E.01008
;WIDTH:0.419999
G1 X127.771 Y106.346 E.01002
G1 X127.526 Y106.14 E.01004
G1 X127.326 Y105.891 E.01001
G1 X127.178 Y105.607 E.01004
G1 X127.089 Y105.3 E.01002
G1 X127.061 Y104.982 E.01001
G1 X127.096 Y104.664 E.01003
G1 X127.192 Y104.359 E.01003
G1 X127.346 Y104.078 E.01005
G1 X127.552 Y103.834 E.01001
G1 X127.801 Y103.634 E.01001
G1 X128.085 Y103.486 E.01004
;WIDTH:0.446859
G1 X128.673 Y103.356 E.02023
G1 X129.029 Y103.403 E.01206
;WIDTH:0.421894
G1 X129.334 Y103.5 E.01009
;WIDTH:0.419999
G1 X129.614 Y103.654 E.01002
G1 X129.859 Y103.86 E.01004
G1 X130.059 Y104.109 E.01001
G1 X130.206 Y104.393 E.01003
G1 X130.274 Y104.624 E.00755
M204 S1000
G1 X130.274 Y104.624 F10800
G1 X130.663 Y104.608
M204 S800
;TYPE:Perimeter
;WIDTH:0.437573
G1 F1200
G1 X130.68 Y104.662 E.00186
G1 X130.68 Y105.338 E.02218
G1 X130.525 Y105.819 E.01658
;WIDTH:0.419999
G1 X130.33 Y106.161 E.01234
G1 X130.072 Y106.458 E.01234
G1 X129.761 Y106.699 E.01234
G1 X129.478 Y106.846 E.01
G1 X129.853 Y107.055 E.01346
G1 X130.15 Y107.313 E.01234
G1 X130.391 Y107.624 E.01234
G1 X130.567 Y107.976 E.01234
;WIDTH:0.437573
G1 X130.68 Y108.354 E.01295
G1 X130.68 Y109.03 E.02218
G1 X130.525 Y109.511 E.01658
;WIDTH:0.419999
G1 X130.33 Y109.853 E.01234
G1 X130.072 Y110.15 E.01234
G1 X129.761 Y110.391 E.01234
;WIDTH:0.421017
G1 X129.409 Y110.568 E.01239
;WIDTH:0.437572
G1 X129.03 Y110.68 E.01297
G1 X128.354 Y110.68 E.02218
G1 X127.873 Y110.525 E.01658
;WIDTH:0.419999
G1 X127.532 Y110.33 E.01232
G1 X127.234 Y110.072 E.01236
G1 X126.993 Y109.761 E.01234
G1 X126.817 Y109.409 E.01234
G1 X126.714 Y109.029 E.01234
G1 X126.686 Y108.637 E.01232
G1 X126.735 Y108.247 E.01232
G1 X126.874 Y107.848 E.01325
G1 X127.055 Y107.532 E.01142
G1 X127.313 Y107.234 E.01236
G1 X127.624 Y106.993 E.01234
G1 X127.906 Y106.846 E.00997
G1 X127.532 Y106.637 E.01343
G1 X127.234 Y106.379 E.01236
G1 X126.993 Y106.069 E.01231
G1 X126.817 Y105.717 E.01234
G1 X126.714 Y105.337 E.01234
G1 X126.686 Y104.945 E.01232
G1 X126.735 Y104.554 E.01236
G1 X126.874 Y104.155 E.01325
G1 X127.055 Y103.839 E.01142
G1 X127.313 Y103.542 E.01234
G1 X127.624 Y103.301 E.01234
G1 X127.906 Y103.154 E.00997
G1 X127.532 Y102.945 E.01343
G1 X127.234 Y102.687 E.01236
G1 X126.993 Y102.376 E.01234
G1 X126.817 Y102.024 E.01234
G1 X126.714 Y101.645 E.01231
G1 X126.686 Y101.363 E.00889
G1 X126.735 Y100.862 E.01578
G1 X126.86 Y100.489 E.01233
G1 X127.055 Y100.147 E.01234
G1 X127.313 Y99.85 E.01234
G1 X127.624 Y99.609 E.01234
;WIDTH:0.421017
G1 X127.976 Y99.432 E.01239
;WIDTH:0.437575
G1 X128.354 Y99.32 E.01294
G1 X129.03 Y99.32 E.02218
G1 X129.511 Y99.475 E.01658
;WIDTH:0.419999
G1 X129.853 Y99.67 E.01234
G1 X130.15 Y99.928 E.01234
G1 X130.391 Y100.239 E.01234
G1 X130.567 Y100.591 E.01234
;WIDTH:0.437573
G1 X130.68 Y100.97 E.01298
G1 X130.68 Y101.646 E.02218
G1 X130.525 Y102.127 E.01658
;WIDTH:0.419999
G1 X130.33 Y102.468 E.01232
G1 X130.072 Y102.766 E.01236
G1 X129.761 Y103.007 E.01234
G1 X129.478 Y103.154 E.01
G1 X129.853 Y103.363 E.01346
G1 X130.15 Y103.621 E.01234
G1 X130.391 Y103.931 E.01231
G1 X130.567 Y104.283 E.01234
;WIDTH:0.437573
G1 X130.646 Y104.55 E.00914
M204 S1000
;WIPE_START
G1 F8640
G1 X130.663 Y104.608 E-.01396
G1 X130.68 Y104.662 E-.01307
G1 X130.68 Y105.338 E-.15609
G1 X130.525 Y105.819 E-.11669
G1 X130.33 Y106.161 E-.0909
G1 X130.072 Y106.458 E-.09084
G1 X129.761 Y106.699 E-.09085
G1 X129.478 Y106.846 E-.07364
G1 X129.853 Y107.055 E-.09913
G1 X130.032 Y107.211 E-.05483
;WIPE_END
G1 Z.6 F720
G1 X128.692 Y99.678 F10800
G1 Z.2 F720
G1 E.8 F2100
M204 S800
;TYPE:External perimeter
;WIDTH:0.419999
G1 F1200
G1 X128.711 Y99.677 E.0006
G1 X129.029 Y99.712 E.01003
G1 X129.334 Y99.808 E.01003
G1 X129.614 Y99.962 E.01002
G1 X129.859 Y100.167 E.01002
G1 X130.059 Y100.417 E.01004
G1 X130.206 Y100.701 E.01003
G1 X130.296 Y101.008 E.01003
G1 X130.323 Y101.326 E.01001
G1 X130.288 Y101.644 E.01003
G1 X130.192 Y101.949 E.01003
G1 X130.038 Y102.229 E.01002
G1 X129.833 Y102.474 E.01002
G1 X129.583 Y102.674 E.01004
G1 X129.299 Y102.822 E.01004
;WIDTH:0.447572
G1 X128.712 Y102.952 E.02023
G1 X128.356 Y102.905 E.01208
;WIDTH:0.421564
G1 X128.051 Y102.808 E.01008
;WIDTH:0.419999
G1 X127.771 Y102.654 E.01002
G1 X127.526 Y102.448 E.01004
G1 X127.326 Y102.199 E.01001
G1 X127.178 Y101.915 E.01004
G1 X127.089 Y101.608 E.01002
G1 X127.061 Y101.326 E.00889
G1 X127.096 Y100.971 E.01118
G1 X127.192 Y100.666 E.01003
G1 X127.346 Y100.386 E.01002
G1 X127.552 Y100.141 E.01004
G1 X127.802 Y99.941 E.01004
G1 X128.085 Y99.794 E.01
G1 X128.392 Y99.704 E.01003
G1 X128.632 Y99.683 E.00755
M204 S1000
;WIPE_START
G1 F8640
G1 X128.692 Y99.678 E-.0139
G1 X128.711 Y99.677 E-.00439
G1 X129.029 Y99.712 E-.07387
G1 X129.334 Y99.808 E-.07383
G1 X129.614 Y99.962 E-.07379
G1 X129.859 Y100.167 E-.07376
G1 X130.059 Y100.417 E-.07392
G1 X130.206 Y100.701 E-.07384
G1 X130.296 Y101.008 E-.07387
G1 X130.323 Y101.326 E-.07369
G1 X130.288 Y101.644 E-.07387
G1 X130.192 Y101.949 E-.07383
G1 X130.101 Y102.114 E-.04344
;WIPE_END
G1 Z.6 F720
G1 X121.931 Y106.505 F10800
G1 Z.2 F720
G1 E.8 F2100
M204 S800
G1 F1200
G1 X121.915 Y106.514 E.00058
;WIDTH:0.447572
G1 X121.328 Y106.645 E.02024
G1 X120.971 Y106.597 E.01212
;WIDTH:0.421564
G1 X120.666 Y106.5 E.01008
;WIDTH:0.419999
G1 X120.386 Y106.346 E.01002
G1 X120.141 Y106.14 E.01004
G1 X119.941 Y105.891 E.01001
G1 X119.794 Y105.607 E.01003
G1 X119.704 Y105.3 E.01003
G1 X119.677 Y104.982 E.01001
G1 X119.712 Y104.664 E.01003
G1 X119.808 Y104.359 E.01003
G1 X119.962 Y104.078 E.01005
G1 X120.167 Y103.834 E.00999
G1 X120.417 Y103.634 E.01004
G1 X120.701 Y103.486 E.01004
;WIDTH:0.446859
G1 X121.288 Y103.356 E.02019
G1 X121.644 Y103.403 E.01206
;WIDTH:0.421894
G1 X121.949 Y103.5 E.01009
;WIDTH:0.419999
G1 X122.199 Y103.634 E.00889
G1 X122.474 Y103.86 E.01116
G1 X122.674 Y104.109 E.01001
G1 X122.822 Y104.393 E.01004
G1 X122.911 Y104.7 E.01002
G1 X122.939 Y105.018 E.01001
G1 X122.904 Y105.336 E.01003
G1 X122.794 Y105.667 E.01094
G1 X122.654 Y105.922 E.00912
G1 X122.448 Y106.166 E.01001
G1 X122.199 Y106.366 E.01001
G1 X121.985 Y106.478 E.00757
M204 S1000
;WIPE_START
G1 F8640
G1 X121.931 Y106.505 E-.01394
G1 X121.915 Y106.514 E-.00424
G1 X121.328 Y106.645 E-.13887
G1 X120.971 Y106.597 E-.08317
G1 X120.666 Y106.5 E-.0739
G1 X120.386 Y106.346 E-.07379
G1 X120.141 Y106.14 E-.07391
G1 X119.941 Y105.891 E-.07374
G1 X119.794 Y105.607 E-.07384
G1 X119.704 Y105.3 E-.07387
G1 X119.677 Y104.982 E-.07369
G1 X119.697 Y104.797 E-.04304
;WIPE_END
G1 Z.6 F720
G1 X121.308 Y99.678 F10800
G1 Z.2 F720
G1 E.8 F2100
M204 S800
G1 F1200
G1 X121.326 Y99.677 E.00057
G1 X121.644 Y99.712 E.01003
G1 X121.949 Y99.808 E.01003
G1 X122.229 Y99.962 E.01002
G1 X122.474 Y100.167 E.01002
G1 X122.674 Y100.417 E.01004
G1 X122.822 Y100.701 E.01004
G1 X122.911 Y101.008 E.01002
G1 X122.939 Y101.326 E.01001
G1 X122.904 Y101.644 E.01003
G1 X122.794 Y101.975 E.01094
G1 X122.654 Y102.229 E.00909
G1 X122.448 Y102.474 E.01004
G1 X122.199 Y102.674 E.01001
G1 X121.915 Y102.822 E.01004
;WIDTH:0.447572
G1 X121.328 Y102.952 E.02023
G1 X120.971 Y102.905 E.01212
;WIDTH:0.421564
G1 X120.666 Y102.808 E.01008
;WIDTH:0.419999
G1 X120.386 Y102.654 E.01002
G1 X120.141 Y102.448 E.01004
G1 X119.941 Y102.199 E.01001
G1 X119.794 Y101.915 E.01003
G1 X119.704 Y101.608 E.01003
G1 X119.677 Y101.326 E.00888
G1 X119.712 Y100.971 E.01118
G1 X119.808 Y100.666 E.01003
G1 X119.962 Y100.386 E.01002
G1 X120.167 Y100.141 E.01002
G1 X120.417 Y99.941 E.01004
G1 X120.701 Y99.794 E.01003
G1 X121.008 Y99.704 E.01003
G1 X121.248 Y99.683 E.00755
M204 S1000
;WIPE_START
G1 F8640
G1 X121.308 Y99.678 E-.0139
G1 X121.326 Y99.677 E-.00416
G1 X121.644 Y99.712 E-.07387
G1 X121.949 Y99.808 E-.07383
G1 X122.229 Y99.962 E-.07379
G1 X122.474 Y100.167 E-.07376
G1 X122.674 Y100.417 E-.07392
G1 X122.822 Y100.701 E-.07395
G1 X122.911 Y101.008 E-.07381
G1 X122.939 Y101.326 E-.07371
G1 X122.904 Y101.644 E-.07387
G1 X122.794 Y101.975 E-.08054
G1 X122.717 Y102.115 E-.03689
;WIPE_END
G1 Z.6 F720
G1 X122.094 Y106.846 F10800
G1 Z.2 F720
G1 E.8 F2100
M204 S800
;TYPE:Perimeter
G1 F1200
G1 X122.468 Y107.055 E.01343
G1 X122.766 Y107.313 E.01236
G1 X123.007 Y107.624 E.01234
G1 X123.183 Y107.976 E.01234
G1 X123.286 Y108.355 E.01231
G1 X123.314 Y108.748 E.01235
G1 X123.265 Y109.138 E.01232
G1 X123.14 Y109.511 E.01233
G1 X122.945 Y109.853 E.01234
G1 X122.687 Y110.15 E.01234
G1 X122.376 Y110.391 E.01234
;WIDTH:0.421017
G1 X122.024 Y110.568 E.01239
;WIDTH:0.437572
G1 X121.646 Y110.68 E.01294
G1 X120.97 Y110.68 E.02218
G1 X120.489 Y110.525 E.01658
;WIDTH:0.419999
G1 X120.147 Y110.33 E.01234
G1 X119.85 Y110.072 E.01234
G1 X119.609 Y109.761 E.01234
;WIDTH:0.421017
G1 X119.432 Y109.409 E.01239
;WIDTH:0.437573
G1 X119.32 Y109.03 E.01297
G1 X119.32 Y108.354 E.02218
G1 X119.475 Y107.873 E.01658
;WIDTH:0.419999
G1 X119.67 Y107.532 E.01232
G1 X119.928 Y107.234 E.01236
G1 X120.239 Y106.993 E.01234
G1 X120.522 Y106.846 E.01
G1 X120.147 Y106.637 E.01346
G1 X119.85 Y106.38 E.01231
G1 X119.609 Y106.069 E.01234
;WIDTH:0.421017
G1 X119.432 Y105.717 E.01239
;WIDTH:0.437573
G1 X119.32 Y105.338 E.01297
G1 X119.32 Y104.662 E.02218
G1 X119.475 Y104.181 E.01658
;WIDTH:0.419999
G1 X119.67 Y103.839 E.01234
G1 X119.928 Y103.542 E.01234
G1 X120.239 Y103.301 E.01234
G1 X120.522 Y103.154 E.01
G1 X120.147 Y102.945 E.01346
G1 X119.85 Y102.687 E.01234
G1 X119.609 Y102.376 E.01234
;WIDTH:0.421017
G1 X119.432 Y102.024 E.01239
;WIDTH:0.437573
G1 X119.32 Y101.646 E.01294
G1 X119.3 Y101.363 E.00931
;WIDTH:0.430829
G1 X119.346 Y100.86 E.01629
G1 X119.475 Y100.489 E.01267
;WIDTH:0.419999
G1 X119.67 Y100.147 E.01234
G1 X119.928 Y99.85 E.01234
G1 X120.239 Y99.609 E.01234
;WIDTH:0.421017
G1 X120.591 Y99.432 E.01239
;WIDTH:0.437575
G1 X120.97 Y99.32 E.01297
G1 X121.646 Y99.32 E.02218
G1 X122.127 Y99.475 E.01658
;WIDTH:0.419999
G1 X122.468 Y99.67 E.01232
G1 X122.766 Y99.928 E.01236
G1 X123.007 Y100.239 E.01234
G1 X123.183 Y100.591 E.01234
G1 X123.286 Y100.971 E.01234
G1 X123.314 Y101.363 E.01232
G1 X123.265 Y101.753 E.01232
G1 X123.126 Y102.152 E.01325
G1 X122.945 Y102.468 E.01142
G1 X122.687 Y102.766 E.01236
G1 X122.376 Y103.007 E.01234
G1 X122.094 Y103.154 E.00997
G1 X122.468 Y103.363 E.01343
G1 X122.766 Y103.621 E.01236
G1 X123.007 Y103.931 E.01231
G1 X123.183 Y104.283 E.01234
G1 X123.286 Y104.663 E.01234
G1 X123.314 Y105.055 E.01232
G1 X123.265 Y105.446 E.01236
G1 X123.126 Y105.845 E.01325
G1 X122.945 Y106.161 E.01142
G1 X122.687 Y106.458 E.01234
G1 X122.376 Y106.699 E.01234
G1 X122.147 Y106.818 E.00809
M204 S1000
;WIPE_START
G1 F8640
G1 X122.094 Y106.846 E-.01384
G1 X122.468 Y107.055 E-.09893
G1 X122.766 Y107.313 E-.09101
G1 X123.007 Y107.624 E-.09085
G1 X123.183 Y107.976 E-.09087
G1 X123.286 Y108.355 E-.09069
G1 X123.314 Y108.748 E-.09097
G1 X123.265 Y109.138 E-.09076
G1 X123.14 Y109.511 E-.09083
G1 X123.03 Y109.704 E-.05125
;WIPE_END
G1 Z.6 F720
G1 X120.155 Y107.54 F10800
G1 Z.2 F720
G1 E.8 F2100
M204 S800
;TYPE:External perimeter
G1 F1200
G1 X120.167 Y107.526 E.00058
G1 X120.417 Y107.326 E.01004
G1 X120.701 Y107.178 E.01004
;WIDTH:0.44686
G1 X121.288 Y107.048 E.02019
G1 X121.644 Y107.095 E.01206
;WIDTH:0.421893
G1 X121.949 Y107.192 E.01009
;WIDTH:0.419999
G1 X122.229 Y107.346 E.01002
G1 X122.474 Y107.552 E.01004
G1 X122.674 Y107.801 E.01001
G1 X122.822 Y108.085 E.01004
G1 X122.911 Y108.392 E.01002
G1 X122.939 Y108.711 E.01004
G1 X122.904 Y109.029 E.01003
G1 X122.808 Y109.334 E.01003
G1 X122.654 Y109.614 E.01002
G1 X122.448 Y109.859 E.01004
G1 X122.199 Y110.059 E.01001
G1 X121.915 Y110.206 E.01003
G1 X121.608 Y110.296 E.01003
G1 X121.289 Y110.323 E.01004
G1 X120.971 Y110.288 E.01003
G1 X120.666 Y110.192 E.01003
G1 X120.386 Y110.038 E.01002
G1 X120.154 Y109.846 E.00944
G1 X119.941 Y109.583 E.01061
G1 X119.794 Y109.299 E.01003
G1 X119.704 Y108.992 E.01003
G1 X119.677 Y108.674 E.01001
G1 X119.712 Y108.356 E.01003
G1 X119.808 Y108.051 E.01003
G1 X119.962 Y107.771 E.01002
G1 X120.117 Y107.586 E.00757
M204 S1000
;WIPE_START
G1 F8640
G1 X120.155 Y107.54 E-.01378
G1 X120.167 Y107.526 E-.00426
G1 X120.417 Y107.326 E-.07392
G1 X120.701 Y107.178 E-.07395
G1 X121.288 Y107.048 E-.13882
G1 X121.644 Y107.095 E-.08291
G1 X121.949 Y107.192 E-.0739
G1 X122.229 Y107.346 E-.07379
G1 X122.474 Y107.552 E-.07391
G1 X122.674 Y107.801 E-.07374
G1 X122.822 Y108.085 E-.07395
G1 X122.874 Y108.264 E-.04307
;WIPE_END
G1 Z.6 F720
G1 X127.338 Y109.598 F10800
G1 Z.2 F720
G1 E.8 F2100
M204 S800
G1 F1200
G1 X127.326 Y109.583 E.0006
G1 X127.178 Y109.299 E.01004
G1 X127.089 Y108.992 E.01002
G1 X127.061 Y108.674 E.01001
G1 X127.096 Y108.356 E.01003
G1 X127.206 Y108.025 E.01094
G1 X127.346 Y107.771 E.00909
