; generated by PrusaSlicer 2.8.0+MacOS-x64 on 2024-08-20 at 14:31:42 UTC


;
;
; 

; external perimeters extrusion width = 0.45mm
; perimeters extrusion width = 0.45mm
; infill extrusion width = 0.45mm
; solid infill extrusion width = 0.45mm
; top infill extrusion width = 0.40mm
; first layer extrusion width = 0.42mm

M73 P0 R56
M73 Q0 S56
M201 X1000 Y1000 Z200 E5000 ; sets maximum accelerations, mm/sec^2
M203 X200 Y200 Z12 E120 ; sets maximum feedrates, mm / sec
M204 S1250 T1250 ; sets acceleration (S) and retract acceleration (R), mm/sec^2
M205 X8.00 Y8.00 Z0.40 E4.50 ; sets the jerk limits, mm/sec
M205 S0 T0 ; sets the minimum extruding and travel feed rate, mm/sec

; printing object weighted_die_5.stl id:0 copy 0
; stop printing object weighted_die_5.stl id:0 copy 0

;TYPE:Custom
M862.3 P "MK3" ; printer model check
M862.1 P0.4 ; nozzle diameter check
M115 U3.14.0 ; tell printer latest fw version
G90 ; use absolute coordinates
M83 ; extruder relative mode
M104 S215 ; set extruder temp
M140 S60 ; set bed temp
M190 S60 ; wait for bed temp
M109 S215 ; wait for extruder temp
G28 W ; home all without mesh bed level
G80 X114.246 Y94.2458 W21.5083 H21.5083 ; mesh bed levelling

G1 Z0.2 F720
G1 Y-3 F1000 ; go outside print area
G92 E0
G1 X60 E9 F1000 ; intro line
G1 X100 E12.5 F1000 ; intro line

G92 E0
M221 S95

; Don't change E values below. Excessive value can damage the printer.
M907 E430 ; set extruder motor current
G21 ; set units to millimeters
G90 ; use absolute coordinates
M83 ; use relative distances for extrusion

M900 K0.05 ; Filament gcode LA 1.5
M900 K30 ; Filament gcode LA 1.0




M107
;LAYER_CHANGE
;Z:0.2
;HEIGHT:0.2
G1 E-.8 F2100
G1 Z.6 F720
G1 X114.827 Y95.637 F10800
G1 Z.2 F720
G1 E.8 F2100
M204 S800
;TYPE:Skirt/Brim
;WIDTH:0.42
G1 F1200
G1 X115.883 Y94.69 E.04447
G1 X117 Y94.434 E.03593
G1 X133 Y94.434 E.50167
G1 X134.363 Y94.827 E.04448
G1 X135.31 Y95.883 E.04447
G1 X135.566 Y97 E.03593
G1 X135.566 Y113 E.50167
G1 X135.173 Y114.363 E.04448
G1 X134.117 Y115.31 E.04447
G1 X133 Y115.566 E.03593
G1 X117 Y115.566 E.50167
G1 X115.637 Y115.173 E.04448
G1 X114.69 Y114.117 E.04447
G1 X114.434 Y113 E.03593
G1 X114.434 Y97 E.50167
G1 X114.81 Y95.694 E.04261
M204 S1000
G1 X114.81 Y95.694 F10800
G1 X115.184 Y95.811
M204 S800
G1 F1200
G1 X115.202 Y95.752 E.00193
G1 X116.235 Y94.949 E.04102
G1 X117 Y94.811 E.02437
G1 X133 Y94.811 E.50167
G1 X134.248 Y95.202 E.04101
G1 X135.051 Y96.235 E.04102
G1 X135.189 Y97 E.02437
G1 X135.189 Y113 E.50167
G1 X134.798 Y114.248 E.04101
G1 X133.765 Y115.051 E.04102
G1 X133 Y115.189 E.02437
G1 X117 Y115.189 E.50167
G1 X115.752 Y114.798 E.04101
G1 X114.949 Y113.765 E.04102
G1 X114.811 Y113 E.02437
G1 X114.811 Y97 E.50167
G1 X115.166 Y95.869 E.03717
M204 S1000
;WIPE_START
G1 F8640
G1 X115.184 Y95.811 E-.01402
G1 X115.202 Y95.752 E-.01424
G1 X116.235 Y94.949 E-.30211
G1 X117 Y94.811 E-.17949
G1 X118.257 Y94.811 E-.29014
;WIPE_END
G1 Z.6 F720
; printing object weighted_die_5.stl id:0 copy 0
G1 X130.046 Y105.904 F10800
G1 Z.2 F720
G1 E.8 F2100
M204 S800
;TYPE:External perimeter
;WIDTH:0.419999
G1 F1200
G1 X130.031 Y105.93 E.00094
G1 X129.833 Y106.166 E.00966
G1 X129.583 Y106.366 E.01004
G1 X129.299 Y106.514 E.01004
;WIDTH:0.447571
G1 X128.712 Y106.645 E.02024
G1 X128.356 Y106.597 E.01209
;WIDTH:0.421564
G1 X128.051 Y106.5 E.01008
;WIDTH:0.419999
G1 X127.771 Y106.346 E.01002
G1 X127.526 Y106.14 E.01004
G1 X127.326 Y105.891 E.01001
G1 X127.178 Y105.607 E.01004
G1 X127.089 Y105.3 E.01002
G1 X127.061 Y104.982 E.01001
G1 X127.096 Y104.664 E.01003
G1 X127.206 Y104.333 E.01094
G1 X127.346 Y104.078 E.00912
G1 X127.552 Y103.834 E.01001
G1 X127.801 Y103.634 E.01001
G1 X128.085 Y103.486 E.01004
;WIDTH:0.446859
G1 X128.673 Y103.356 E.02023
G1 X129.029 Y103.403 E.01206
;WIDTH:0.421894
G1 X129.334 Y103.5 E.01009
;WIDTH:0.419999
G1 X129.614 Y103.654 E.01002
G1 X129.859 Y103.86 E.01004
G1 X130.059 Y104.109 E.01001
G1 X130.206 Y104.393 E.01003
G1 X130.296 Y104.7 E.01003
G1 X130.323 Y105.018 E.01001
G1 X130.288 Y105.336 E.01003
G1 X130.192 Y105.641 E.01003
G1 X130.075 Y105.852 E.00756
M204 S1000
G1 X130.075 Y105.852 F10800
G1 X130.667 Y106.319
M204 S800
;TYPE:Perimeter
G1 F1200
G1 X130.614 Y106.409 E.00327
G1 X130.311 Y106.749 E.01428
G1 X130.193 Y106.846 E.00479
G1 X130.442 Y107.074 E.01059
G1 X130.724 Y107.446 E.01464
G1 X130.928 Y107.866 E.01464
G1 X131.046 Y108.318 E.01465
G1 X131.074 Y108.785 E.01467
G1 X131.01 Y109.248 E.01466
G1 X130.857 Y109.689 E.01464
G1 X130.621 Y110.092 E.01464
G1 X130.311 Y110.442 E.01466
G1 X129.939 Y110.724 E.01464
G1 X129.518 Y110.928 E.01467
G1 X129.066 Y111.046 E.01465
G1 X128.6 Y111.074 E.01464
G1 X128.137 Y111.01 E.01466
G1 X127.696 Y110.857 E.01464
G1 X127.292 Y110.621 E.01467
G1 X126.943 Y110.311 E.01464
G1 X126.661 Y109.939 E.01464
G1 X126.457 Y109.518 E.01467
G1 X126.338 Y109.066 E.01466
G1 X126.311 Y108.6 E.01464
G1 X126.374 Y108.137 E.01465
G1 X126.541 Y107.67 E.01555
G1 X126.763 Y107.292 E.01374
G1 X127.074 Y106.943 E.01466
G1 X127.192 Y106.846 E.00479
G1 X126.943 Y106.619 E.01056
G1 X126.661 Y106.246 E.01466
G1 X126.457 Y105.826 E.01464
G1 X126.338 Y105.374 E.01466
G1 X126.311 Y104.908 E.01464
G1 X126.374 Y104.445 E.01465
G1 X126.541 Y103.978 E.01555
G1 X126.763 Y103.6 E.01374
G1 X127.074 Y103.251 E.01466
G1 X127.192 Y103.154 E.00479
G1 X126.943 Y102.926 E.01059
G1 X126.661 Y102.554 E.01464
G1 X126.457 Y102.134 E.01464
G1 X126.338 Y101.682 E.01466
G1 X126.311 Y101.215 E.01467
G1 X126.374 Y100.752 E.01465
G1 X126.527 Y100.311 E.01464
G1 X126.763 Y99.908 E.01464
G1 X127.074 Y99.558 E.01468
G1 X127.446 Y99.276 E.01464
G1 X127.866 Y99.072 E.01464
G1 X128.318 Y98.954 E.01465
G1 X128.785 Y98.926 E.01467
G1 X129.248 Y98.99 E.01466
G1 X129.689 Y99.143 E.01464
G1 X130.092 Y99.379 E.01464
G1 X130.442 Y99.689 E.01466
G1 X130.724 Y100.061 E.01464
G1 X130.928 Y100.482 E.01467
G1 X131.046 Y100.934 E.01465
G1 X131.074 Y101.4 E.01464
G1 X131.01 Y101.863 E.01466
G1 X130.857 Y102.304 E.01464
G1 X130.614 Y102.717 E.01502
G1 X130.311 Y103.057 E.01428
G1 X130.193 Y103.154 E.00479
G1 X130.442 Y103.381 E.01056
G1 X130.724 Y103.754 E.01466
G1 X130.928 Y104.174 E.01464
G1 X131.046 Y104.626 E.01465
G1 X131.074 Y105.092 E.01464
G1 X131.01 Y105.555 E.01466
G1 X130.857 Y105.997 E.01467
G1 X130.697 Y106.268 E.00987
M204 S1000
G1 X130.697 Y106.268 F10800
G1 X130.356 Y106.111
M204 S800
G1 F1200
G1 X130.322 Y106.17 E.00214
G1 X130.072 Y106.458 E.01196
G1 X129.761 Y106.699 E.01234
G1 X129.478 Y106.846 E.01
G1 X129.853 Y107.055 E.01346
G1 X130.15 Y107.313 E.01234
G1 X130.391 Y107.624 E.01234
G1 X130.567 Y107.976 E.01234
G1 X130.671 Y108.355 E.01232
G1 X130.699 Y108.748 E.01235
G1 X130.649 Y109.138 E.01233
G1 X130.525 Y109.511 E.01232
G1 X130.33 Y109.853 E.01234
G1 X130.072 Y110.15 E.01234
G1 X129.761 Y110.391 E.01234
G1 X129.409 Y110.567 E.01234
G1 X129.029 Y110.671 E.01235
G1 X128.637 Y110.699 E.01232
G1 X128.247 Y110.649 E.01233
G1 X127.873 Y110.525 E.01235
G1 X127.532 Y110.33 E.01232
G1 X127.234 Y110.072 E.01236
G1 X126.993 Y109.761 E.01234
G1 X126.817 Y109.409 E.01234
G1 X126.714 Y109.029 E.01234
G1 X126.686 Y108.637 E.01232
G1 X126.735 Y108.247 E.01232
G1 X126.874 Y107.848 E.01325
G1 X127.055 Y107.532 E.01142
G1 X127.313 Y107.234 E.01236
G1 X127.624 Y106.993 E.01234
G1 X127.906 Y106.846 E.00997
G1 X127.532 Y106.637 E.01343
G1 X127.234 Y106.379 E.01236
G1 X126.993 Y106.069 E.01231
G1 X126.817 Y105.717 E.01234
G1 X126.714 Y105.337 E.01234
G1 X126.686 Y104.945 E.01232
G1 X126.735 Y104.554 E.01236
G1 X126.874 Y104.155 E.01325
G1 X127.055 Y103.839 E.01142
G1 X127.313 Y103.542 E.01234
G1 X127.624 Y103.301 E.01234
G1 X127.906 Y103.154 E.00997
G1 X127.532 Y102.945 E.01343
G1 X127.234 Y102.687 E.01236
G1 X126.993 Y102.376 E.01234
G1 X126.817 Y102.024 E.01234
G1 X126.714 Y101.645 E.01231
G1 X126.686 Y101.252 E.01235
G1 X126.735 Y100.862 E.01232
G1 X126.86 Y100.489 E.01233
G1 X127.055 Y100.147 E.01234
G1 X127.313 Y99.85 E.01234
G1 X127.624 Y99.609 E.01234
G1 X127.976 Y99.433 E.01234
G1 X128.355 Y99.329 E.01232
G1 X128.748 Y99.301 E.01235
G1 X129.138 Y99.351 E.01233
G1 X129.511 Y99.475 E.01232
G1 X129.853 Y99.67 E.01234
G1 X130.15 Y99.928 E.01234
G1 X130.391 Y100.239 E.01234
G1 X130.567 Y100.591 E.01234
G1 X130.671 Y100.971 E.01235
G1 X130.699 Y101.363 E.01232
G1 X130.649 Y101.753 E.01233
G1 X130.525 Y102.127 E.01235
G1 X130.322 Y102.477 E.01269
G1 X130.072 Y102.766 E.01198
G1 X129.761 Y103.007 E.01234
G1 X129.478 Y103.154 E.01
G1 X129.853 Y103.363 E.01346
G1 X130.15 Y103.621 E.01234
G1 X130.391 Y103.931 E.01231
G1 X130.567 Y104.283 E.01234
G1 X130.671 Y104.663 E.01235
G1 X130.699 Y105.055 E.01232
G1 X130.649 Y105.446 E.01236
G1 X130.525 Y105.819 E.01232
G1 X130.386 Y106.06 E.00872
M204 S1000
;WIPE_START
G1 F8640
G1 X130.356 Y106.111 E-.01366
G1 X130.322 Y106.17 E-.01572
G1 X130.072 Y106.458 E-.08806
G1 X129.761 Y106.699 E-.09085
G1 X129.478 Y106.846 E-.07364
G1 X129.853 Y107.055 E-.09913
G1 X130.15 Y107.313 E-.09084
G1 X130.391 Y107.624 E-.09085
G1 X130.567 Y107.976 E-.09087
G1 X130.671 Y108.355 E-.09075
G1 X130.688 Y108.595 E-.05563
;WIPE_END
G1 Z.6 F720
G1 X129.845 Y102.46 F10800
G1 Z.2 F720
G1 E.8 F2100
M204 S800
;TYPE:External perimeter
G1 F1200
G1 X129.833 Y102.474 E.00058
G1 X129.583 Y102.674 E.01004
G1 X129.299 Y102.822 E.01004
;WIDTH:0.447572
G1 X128.712 Y102.952 E.02023
G1 X128.356 Y102.905 E.01208
;WIDTH:0.421564
G1 X128.051 Y102.808 E.01008
;WIDTH:0.419999
G1 X127.771 Y102.654 E.01002
G1 X127.526 Y102.448 E.01004
G1 X127.326 Y102.199 E.01001
G1 X127.192 Y101.949 E.00889
G1 X127.089 Y101.608 E.01117
G1 X127.061 Y101.289 E.01004
G1 X127.096 Y100.971 E.01003
G1 X127.192 Y100.666 E.01003
G1 X127.346 Y100.386 E.01002
G1 X127.552 Y100.141 E.01004
G1 X127.801 Y99.941 E.01001
G1 X128.085 Y99.794 E.01003
G1 X128.392 Y99.704 E.01003
G1 X128.711 Y99.677 E.01004
G1 X129.029 Y99.712 E.01003
G1 X129.334 Y99.808 E.01003
G1 X129.614 Y99.962 E.01002
G1 X129.859 Y100.167 E.01002
G1 X130.059 Y100.417 E.01004
G1 X130.206 Y100.701 E.01003
G1 X130.296 Y101.008 E.01003
G1 X130.323 Y101.326 E.01001
G1 X130.288 Y101.644 E.01003
G1 X130.192 Y101.949 E.01003
G1 X130.031 Y102.238 E.01037
G1 X129.883 Y102.414 E.00721
M204 S1000
;WIPE_START
G1 F8640
G1 X129.845 Y102.46 E-.01378
G1 X129.833 Y102.474 E-.00426
G1 X129.583 Y102.674 E-.07392
G1 X129.299 Y102.822 E-.07395
G1 X128.712 Y102.952 E-.13882
G1 X128.356 Y102.905 E-.08291
G1 X128.051 Y102.808 E-.0739
G1 X127.771 Y102.654 E-.07379
G1 X127.526 Y102.448 E-.07391
G1 X127.326 Y102.199 E-.07374
G1 X127.192 Y101.949 E-.0655
G1 X127.127 Y101.735 E-.05152
;WIPE_END
G1 Z.6 F720
G1 X127.191 Y108.071 F10800
G1 Z.2 F720
G1 E.8 F2100
M204 S800
G1 F1200
G1 X127.206 Y108.025 E.00152
G1 X127.346 Y107.771 E.00909
G1 X127.526 Y107.552 E.00889
G1 X127.801 Y107.326 E.01116
G1 X128.085 Y107.178 E.01004
;WIDTH:0.44686
G1 X128.673 Y107.048 E.02023
G1 X129.029 Y107.095 E.01206
;WIDTH:0.421893
G1 X129.334 Y107.192 E.01009
;WIDTH:0.419999
G1 X129.614 Y107.346 E.01002
G1 X129.859 Y107.552 E.01004
G1 X130.059 Y107.802 E.01004
G1 X130.206 Y108.085 E.01
G1 X130.296 Y108.392 E.01003
G1 X130.323 Y108.711 E.01004
G1 X130.288 Y109.029 E.01003
G1 X130.192 Y109.334 E.01003
G1 X130.038 Y109.614 E.01002
G1 X129.833 Y109.859 E.01002
G1 X129.583 Y110.059 E.01004
G1 X129.299 Y110.206 E.01003
G1 X128.992 Y110.296 E.01003
G1 X128.674 Y110.323 E.01001
G1 X128.356 Y110.288 E.01003
G1 X128.051 Y110.192 E.01003
G1 X127.771 Y110.038 E.01002
G1 X127.526 Y109.833 E.01002
G1 X127.326 Y109.583 E.01004
G1 X127.178 Y109.299 E.01004
G1 X127.089 Y108.992 E.01002
G1 X127.061 Y108.674 E.01001
G1 X127.096 Y108.356 E.01003
G1 X127.172 Y108.128 E.00754
M204 S1000
;WIPE_START
G1 F8640
G1 X127.191 Y108.071 E-.01387
G1 X127.206 Y108.025 E-.01117
G1 X127.346 Y107.771 E-.06697
G1 X127.526 Y107.552 E-.06546
G1 X127.801 Y107.326 E-.08219
G1 X128.085 Y107.178 E-.07395
G1 X128.673 Y107.048 E-.13905
G1 X129.029 Y107.095 E-.08291
G1 X129.334 Y107.192 E-.0739
G1 X129.614 Y107.346 E-.07379
G1 X129.859 Y107.552 E-.07391
G1 X129.975 Y107.697 E-.04283
;WIPE_END
G1 Z.6 F720
G1 X122.809 Y103.154 F10800
G1 Z.2 F720
G1 E.8 F2100
M204 S800
;TYPE:Perimeter
G1 F1200
G1 X123.057 Y103.381 E.01054
G1 X123.339 Y103.754 E.01466
G1 X123.543 Y104.174 E.01464
G1 X123.662 Y104.626 E.01466
G1 X123.689 Y105.092 E.01464
G1 X123.626 Y105.555 E.01465
G1 X123.459 Y106.022 E.01555
G1 X123.237 Y106.4 E.01374
G1 X122.926 Y106.749 E.01466
G1 X122.809 Y106.846 E.00477
G1 X123.057 Y107.074 E.01056
G1 X123.339 Y107.446 E.01464
G1 X123.543 Y107.866 E.01464
G1 X123.662 Y108.318 E.01466
G1 X123.689 Y108.785 E.01467
G1 X123.626 Y109.248 E.01465
G1 X123.473 Y109.689 E.01464
G1 X123.237 Y110.092 E.01464
G1 X122.926 Y110.442 E.01468
G1 X122.554 Y110.724 E.01464
G1 X122.134 Y110.928 E.01464
G1 X121.682 Y111.046 E.01465
G1 X121.215 Y111.074 E.01467
G1 X120.752 Y111.01 E.01466
G1 X120.311 Y110.857 E.01464
G1 X119.908 Y110.621 E.01464
G1 X119.558 Y110.311 E.01466
G1 X119.276 Y109.939 E.01464
G1 X119.072 Y109.518 E.01467
G1 X118.954 Y109.066 E.01465
G1 X118.926 Y108.6 E.01464
G1 X118.99 Y108.137 E.01466
G1 X119.143 Y107.696 E.01464
G1 X119.386 Y107.283 E.01502
G1 X119.689 Y106.943 E.01428
G1 X119.807 Y106.846 E.00479
G1 X119.558 Y106.619 E.01056
G1 X119.276 Y106.246 E.01466
G1 X119.072 Y105.826 E.01464
G1 X118.954 Y105.374 E.01465
G1 X118.926 Y104.908 E.01464
G1 X118.99 Y104.445 E.01466
G1 X119.143 Y104.003 E.01467
G1 X119.386 Y103.591 E.015
G1 X119.689 Y103.251 E.01428
G1 X119.807 Y103.154 E.00479
G1 X119.558 Y102.926 E.01059
G1 X119.276 Y102.554 E.01464
G1 X119.072 Y102.134 E.01464
G1 X118.954 Y101.682 E.01465
G1 X118.926 Y101.4 E.00889
G1 X118.954 Y100.934 E.01464
G1 X119.072 Y100.482 E.01465
G1 X119.276 Y100.061 E.01467
G1 X119.62 Y99.62 E.01754
G1 X120.061 Y99.276 E.01754
G1 X120.482 Y99.072 E.01467
G1 X120.934 Y98.954 E.01465
G1 X121.4 Y98.926 E.01464
G1 X121.863 Y98.99 E.01466
G1 X122.304 Y99.143 E.01464
G1 X122.708 Y99.379 E.01467
G1 X123.057 Y99.689 E.01464
G1 X123.339 Y100.061 E.01464
G1 X123.543 Y100.482 E.01467
G1 X123.662 Y100.934 E.01466
G1 X123.689 Y101.4 E.01464
G1 X123.626 Y101.863 E.01465
G1 X123.459 Y102.33 E.01555
G1 X123.237 Y102.708 E.01374
G1 X122.926 Y103.057 E.01466
G1 X122.855 Y103.116 E.00289
M204 S1000
G1 X122.855 Y103.116 F10800
G1 X122.094 Y103.154
M204 S800
G1 F1200
G1 X122.468 Y103.363 E.01343
G1 X122.766 Y103.621 E.01236
G1 X123.007 Y103.931 E.01231
G1 X123.183 Y104.283 E.01234
G1 X123.286 Y104.663 E.01234
G1 X123.314 Y105.055 E.01232
G1 X123.265 Y105.446 E.01236
G1 X123.126 Y105.845 E.01325
G1 X122.945 Y106.161 E.01142
G1 X122.687 Y106.458 E.01234
G1 X122.376 Y106.699 E.01234
G1 X122.094 Y106.846 E.00997
G1 X122.468 Y107.055 E.01343
G1 X122.766 Y107.313 E.01236
G1 X123.007 Y107.624 E.01234
G1 X123.183 Y107.976 E.01234
G1 X123.286 Y108.355 E.01231
G1 X123.314 Y108.748 E.01235
G1 X123.265 Y109.138 E.01232
G1 X123.14 Y109.511 E.01233
G1 X122.945 Y109.853 E.01234
G1 X122.687 Y110.15 E.01234
G1 X122.376 Y110.391 E.01234
G1 X122.024 Y110.567 E.01234
G1 X121.645 Y110.671 E.01232
G1 X121.252 Y110.699 E.01235
G1 X120.862 Y110.649 E.01233
G1 X120.489 Y110.525 E.01232
G1 X120.147 Y110.33 E.01234
G1 X119.85 Y110.072 E.01234
G1 X119.609 Y109.761 E.01234
G1 X119.433 Y109.409 E.01234
G1 X119.329 Y109.029 E.01235
G1 X119.301 Y108.637 E.01232
G1 X119.351 Y108.247 E.01233
G1 X119.475 Y107.873 E.01235
G1 X119.678 Y107.523 E.01269
G1 X119.928 Y107.234 E.01198
G1 X120.239 Y106.993 E.01234
G1 X120.522 Y106.846 E.01
G1 X120.147 Y106.637 E.01346
G1 X119.85 Y106.379 E.01234
G1 X119.609 Y106.069 E.01231
G1 X119.433 Y105.717 E.01234
G1 X119.329 Y105.337 E.01235
G1 X119.301 Y104.945 E.01232
G1 X119.351 Y104.554 E.01236
G1 X119.475 Y104.181 E.01232
G1 X119.678 Y103.83 E.01271
G1 X119.928 Y103.542 E.01196
G1 X120.239 Y103.301 E.01234
G1 X120.522 Y103.154 E.01
G1 X120.147 Y102.945 E.01346
G1 X119.85 Y102.687 E.01234
G1 X119.609 Y102.376 E.01234
G1 X119.433 Y102.024 E.01234
G1 X119.329 Y101.645 E.01232
G1 X119.301 Y101.363 E.00889
G1 X119.351 Y100.862 E.01579
G1 X119.475 Y100.489 E.01232
G1 X119.67 Y100.147 E.01234
G1 X119.928 Y99.85 E.01234
